swiss/communes/0302.svg

<?xml version="1.0" encoding="UTF-8" standalone="no"?>
<svg
   xmlns:dc="http://purl.org/dc/elements/1.1/"
   xmlns:cc="http://web.resource.org/cc/"
   xmlns:rdf="http://www.w3.org/1999/02/22-rdf-syntax-ns#"
   xmlns:svg="http://www.w3.org/2000/svg"
   xmlns="http://www.w3.org/2000/svg"
   xmlns:xlink="http://www.w3.org/1999/xlink"
   xmlns:sodipodi="http://sodipodi.sourceforge.net/DTD/sodipodi-0.dtd"
   xmlns:inkscape="http://www.inkscape.org/namespaces/inkscape"
   height="763"
   width="603"
   version="1.0"
   id="svg20"
   sodipodi:version="0.32"
   inkscape:version="0.44.1"
   sodipodi:docname="Bargen-coat of arms.svg"
   sodipodi:docbase="F:\Mis Documentos\Mis imágenes\Encyclopédie\Escudos de Suiza">
  <metadata
     id="metadata31">
    <rdf:RDF>
      <cc:Work
         rdf:about="">
        <dc:format>image/svg+xml</dc:format>
        <dc:type
           rdf:resource="http://purl.org/dc/dcmitype/StillImage" />
        <dc:date>07-AUG-2006</dc:date>
        <dc:creator>
          <cc:Agent>
            <dc:title>Jérôme BLUM (wagner51)</dc:title>
          </cc:Agent>
        </dc:creator>
        <cc:license
           rdf:resource="http://creativecommons.org/licenses/GPL/2.0/" />
        <dc:coverage />
        <dc:description>Gabarit pour le Projet:Blasons de WIkipédia</dc:description>
        <dc:subject>
          <rdf:Bag>
            <rdf:li>blason suisse modèle gabarit projet blasons</rdf:li>
          </rdf:Bag>
        </dc:subject>
        <dc:language>fr</dc:language>
        <dc:title>Gabrit d'un blason suisse</dc:title>
      </cc:Work>
      <cc:License
         rdf:about="http://creativecommons.org/licenses/GPL/2.0/">
        <cc:permits
           rdf:resource="http://web.resource.org/cc/Reproduction" />
        <cc:permits
           rdf:resource="http://web.resource.org/cc/Distribution" />
        <cc:requires
           rdf:resource="http://web.resource.org/cc/Notice" />
        <cc:permits
           rdf:resource="http://web.resource.org/cc/DerivativeWorks" />
        <cc:requires
           rdf:resource="http://web.resource.org/cc/ShareAlike" />
        <cc:requires
           rdf:resource="http://web.resource.org/cc/SourceCode" />
      </cc:License>
    </rdf:RDF>
  </metadata>
  <defs
     id="defs29">
    <linearGradient
       id="linearGradient2893">
      <stop
         style="stop-color:#ffffff;stop-opacity:0.3137255;"
         offset="0"
         id="stop2895" />
      <stop
         id="stop2897"
         offset="0.19"
         style="stop-color:#ffffff;stop-opacity:0.25098041;" />
      <stop
         style="stop-color:#6b6b6b;stop-opacity:0.1254902;"
         offset="0.60000002"
         id="stop2901" />
      <stop
         style="stop-color:#000000;stop-opacity:0.1254902;"
         offset="1"
         id="stop2899" />
    </linearGradient>
    <linearGradient
       id="linearGradient2955">
      <stop
         style="stop-color:white;stop-opacity:0;"
         offset="0"
         id="stop2965" />
      <stop
         style="stop-color:black;stop-opacity:0.64583331;"
         offset="1"
         id="stop2959" />
    </linearGradient>
    <radialGradient
       inkscape:collect="always"
       xlink:href="#linearGradient2893"
       id="radialGradient3236"
       gradientUnits="userSpaceOnUse"
       gradientTransform="matrix(1.215027,1.531577e-24,1.464684e-23,1.266667,-839.1924,-490.4894)"
       cx="858.04236"
       cy="579.93323"
       fx="858.04236"
       fy="579.93323"
       r="300" />
  </defs>
  <sodipodi:namedview
     inkscape:window-height="682"
     inkscape:window-width="1024"
     inkscape:pageshadow="2"
     inkscape:pageopacity="0.0"
     guidetolerance="10.0"
     gridtolerance="10.0"
     objecttolerance="10.0"
     borderopacity="1.0"
     bordercolor="#666666"
     pagecolor="#ffffff"
     id="base"
     inkscape:zoom="0.50206639"
     inkscape:cx="695.40835"
     inkscape:cy="376.37345"
     inkscape:window-x="-4"
     inkscape:window-y="-4"
     inkscape:current-layer="layer2"
     showgrid="true"
     showguides="true"
     inkscape:guide-bbox="true" />
  <desc
     id="desc22">Coat of Arms of Canton of Freiburg (Fribourg)</desc>
  <g
     inkscape:groupmode="layer"
     id="layer1"
     inkscape:label="Fond écu"
     sodipodi:insensitive="true">
    <path
       id="path1899"
       d="M 1.5,1.49998 L 1.5,460.3679 C 1.5,626.6785 135.81456,761.5 301.49999,761.5 C 467.18543,761.5 601.5,626.6785 601.5,460.3679 L 601.5,1.49998 L 1.5,1.49998 z "
       style="fill:#e20909;fill-opacity:1" />
  </g>
  <g
     inkscape:groupmode="layer"
     id="layer2"
     inkscape:label="Meubles"
     sodipodi:insensitive="true">
    <g
       id="g12612"
       transform="matrix(4.274353,0,0,4.274353,-2625.826,-2447.092)">
      <path
         sodipodi:nodetypes="cssccccccccccccc"
         id="path5489"
         d="M 654.19788,624.47056 C 654.19788,624.47056 646.93502,620.8155 641.87162,617.06419 C 635.95857,612.6834 628.38962,614.21154 626.87162,619.60425 C 623.21629,632.58986 616.70775,635.08541 617.59363,644.20319 L 626.60425,642.59894 L 617.59363,644.20319 L 617.72732,656.52944 C 624.26865,655.00481 629.03393,651.70414 632.72732,647.33156 L 626.60425,642.59894 L 626.73793,639.47056 L 630.53475,640.00531 C 630.18119,634.4237 630.50647,628.94653 634.73263,624.0695 C 637.96167,629.67441 639.12627,636.16408 644.59894,640.80743 L 655,623 L 655,623 L 654.19788,624.47056 z "
         style="fill:white;fill-opacity:1;fill-rule:evenodd;stroke:black;stroke-width:1px;stroke-linecap:butt;stroke-linejoin:miter;stroke-opacity:1" />
      <path
         sodipodi:nodetypes="csccsccccccscc"
         id="path2828"
         d="M 718.39575,669.60425 C 735.36967,644.57596 754.733,660.41755 751.93285,674.63933 C 749.08817,689.08734 734.9899,698.32692 745,708 C 744.12123,709.39755 742.65364,709.61745 741.0695,709.60425 C 735.35333,700.47483 738.58009,690.89947 742.69603,680.85598 C 746.18853,672.33376 749.43487,659.08082 730,663 C 749.483,659.12609 745.80898,672.25704 742.69603,680.85598 C 738.65274,690.95025 735.35737,700.37815 741.0695,709.60425 C 739.803,710.13721 738.68316,710.96348 736.73793,710.139 C 732.27289,704.93577 733.86999,698.68054 734.59894,692.59894 C 733.82915,698.74218 732.36487,705.02432 736.73793,710.139 C 728.62781,710.61245 726.07313,698.37431 730.49369,689.48099 C 740.07373,670.20775 733.20735,662.78167 720,673 L 718.39575,669.60425 z "
         style="fill:white;fill-opacity:1;fill-rule:evenodd;stroke:black;stroke-width:1px;stroke-linecap:butt;stroke-linejoin:miter;stroke-opacity:1" />
      <path
         sodipodi:nodetypes="cccc"
         id="path8150"
         d="M 687.20391,583.90547 C 687.63351,582.51076 687.80669,581.75565 687.52734,580 C 682.11711,580.22045 680.11456,582.70917 676.75625,585.52734 C 681.50643,587.43465 683.17703,586.72042 687.20391,583.90547 z "
         style="fill:white;fill-opacity:1;fill-rule:evenodd;stroke:black;stroke-width:1px;stroke-linecap:butt;stroke-linejoin:miter;stroke-opacity:1" />
      <path
         sodipodi:nodetypes="cccccccccccccccccccc"
         id="path7263"
         d="M 687.00531,590.72732 C 696.47128,603.1117 689.21695,614.80255 683.26207,626.60956 L 690.58832,624.60425 L 693.16754,620.16194 L 687.94112,617.06419 L 693.16754,620.16194 C 694.23701,618.35934 694.76781,616.74581 695.61306,614.47056 L 689.41168,613.13369 L 695.61306,614.47056 C 696.06486,612.31989 696.95251,610.1324 697.15521,607.73263 L 691.01593,606.39575 L 697.15521,607.73263 C 697.64549,605.33511 697.73187,603.03211 697.54006,600.54006 L 691.14962,600.861 L 697.54006,600.54006 C 697.21068,598.23144 696.74668,596.01257 695.66844,594.20319 L 690.2138,595.32625 L 695.66844,594.20319 C 694.26359,591.48929 692.14558,589.72626 690,588 L 687.00531,590.72732 z "
         style="fill:white;fill-opacity:1;fill-rule:evenodd;stroke:black;stroke-width:1px;stroke-linecap:butt;stroke-linejoin:miter;stroke-opacity:1" />
      <path
         sodipodi:nodetypes="cccccccccccc"
         id="path6376"
         d="M 735.74855,613.93581 C 737.95937,610.40637 740.86975,604.06949 738.26206,597.06419 C 737.6061,599.69701 735.41907,600.79874 733.79681,602.46525 L 715,618 L 733.79681,602.46525 C 735.62433,599.49088 737.49043,589.70854 734.73263,586.12838 C 734.30481,588.90021 732.32681,590.12185 730.93581,591.9305 L 700,623 L 730.93581,591.9305 C 732.10529,585.68575 731.5014,580.77103 728.39575,577.73263 C 718.35943,596.9971 701.19434,605.148 690,624.87162 C 706.29594,622.69134 721.22244,618.59384 735.74855,613.93581 z "
         style="fill:white;fill-opacity:1;fill-rule:evenodd;stroke:black;stroke-width:1px;stroke-linecap:butt;stroke-linejoin:miter;stroke-opacity:1" />
      <path
         sodipodi:nodetypes="ccccccccccccc"
         id="path3715"
         d="M 694.14431,697.67906 C 689.64038,701.24511 689.48511,703.61976 689.06419,707.86631 C 681.43969,712.05016 670.31749,711.09032 668.12838,723.26737 C 666.43133,722.06152 664.29157,721.07703 663.9305,719.20319 L 661.73793,722.19788 L 650.40106,721.79681 L 661.73793,722.19788 L 664.06419,731.79681 C 657.70946,734.9595 650.28523,733.83534 645,733 L 650.40106,721.79681 C 652.13504,712.02709 665.05756,712.43058 677.00531,702.06419 C 663.36847,691.64937 669.37004,681.7479 680.2138,673.53475 C 693.4137,675.32599 693.75442,686.02826 694.14431,697.67906 z "
         style="fill:white;fill-opacity:1;fill-rule:evenodd;stroke:black;stroke-width:1px;stroke-linecap:butt;stroke-linejoin:miter;stroke-opacity:1" />
      <path
         sodipodi:nodetypes="cccc"
         id="path4602"
         d="M 692.67375,681.39575 C 693.63266,690.62314 679.50191,689.35843 684.23955,681.85203 L 677.67375,675.139 C 683.33005,674.59937 688.34526,676.62414 692.67375,681.39575 z "
         style="fill:white;fill-opacity:1;fill-rule:evenodd;stroke:black;stroke-width:1px;stroke-linecap:butt;stroke-linejoin:miter;stroke-opacity:1" />
      <path
         sodipodi:nodetypes="csccccccccccccccccccccccccsccccccccccccccccccccccccccccccccccc"
         id="path1939"
         d="M 722.45781,705.26875 C 702.91436,691.95146 737.43193,671.39668 706.33119,662.57661 C 700.67134,660.97149 694.40313,658.82459 686.21875,651.67656 C 682.66753,651.09891 679.87869,650.6405 676.78594,649.89062 C 679.97389,650.75065 682.55043,651.11335 686.21875,651.67656 C 711.27738,650.39069 730.28668,660.45225 746.13437,635.35313 L 738.52944,637.59894 C 722.39436,644.22485 704.40926,642.3655 687.45994,644.87162 C 704.49242,642.48776 722.49196,644.29449 738.52944,637.59894 C 745.68363,632.79226 751.55923,626.45626 751.84984,619.2766 C 749.80723,620.73711 747.76462,621.58799 745.72201,622.41168 C 726.55339,632.904 706.70362,633.17903 687.19257,638.53475 C 706.65175,633.1422 726.64094,632.9492 745.72201,622.41168 C 749.01009,617.47582 752.78693,612.80313 751.60425,605.45994 C 728.90738,629.08634 681.62456,625.52818 675,638 C 681.65488,625.60209 728.79854,629.0083 751.60425,605.45994 C 730.49533,616.38472 707.26096,620.08298 684.46525,625.27268 C 668.52874,628.2838 669.06191,634.65993 669.19788,641.07481 C 669.086,634.67678 668.60748,628.19905 684.46525,625.27268 C 687.97594,614.82539 697.80979,606.3543 687.861,590.32625 C 690.58701,588.45332 692.45219,585.71957 693.39575,582.06419 C 689.69029,582.53206 685.90681,582.21976 682.54006,586.07481 C 675.94773,585.53535 667.61802,578.33597 662.94112,585.139 C 654.34477,585.58052 639.93814,571.37005 638.60956,590.139 C 643.46318,590.29557 648.71632,589.73299 650.13369,596.07481 L 639.73263,597.73263 C 641.55026,600.53332 643.0425,603.65319 648.04826,600.72732 C 652.8754,597.90586 657.06447,602.90099 662.77576,603.00016 C 664.17949,605.19187 664.80434,607.5783 670.29392,608.74855 C 674.65736,609.25977 678.5706,607.62512 680,603 C 678.61955,607.62614 674.72296,609.2213 670.29392,608.74855 C 670.75574,622.34908 651.29022,614.30043 649.86631,630.67375 C 640.55736,634.48847 644.22605,641.76389 645,648.26738 C 647.55972,645.30123 650.08974,645.36537 652.59363,644.47056 C 650.06242,645.41451 647.53121,645.36972 645,648.26738 C 640.8788,652.7629 636.23394,660.35909 632.05888,662.41168 C 625.15226,666.02338 624.8689,672.41129 630,678 C 639.25933,691.35123 633.2883,693.90472 638.52944,697.59894 L 645.13369,689.33687 L 638.52944,697.59894 L 649.33156,706.9305 C 651.39554,701.56254 653.42477,696.17879 651.65782,689.0695 L 645.13369,689.33687 L 643.2085,686.2085 L 648.07481,685.27268 C 642.75151,680.74975 628.87139,671.09648 645,668 L 656.33687,665.72732 C 660.42124,664.3604 661.68716,660.84898 661.47056,656.26207 C 661.69221,660.86682 660.38517,664.32504 656.33687,665.72732 C 665.65853,677.63492 672.89627,669.75143 690.53475,679.73793 L 690.93581,676.87693 L 690.53475,679.73793 C 685.91216,699.59845 697.739,702.01185 707.139,707.86631 C 698.28065,730.12883 693.06173,724.45895 692.05888,733.80212 L 703.52944,734.0695 L 692.05888,733.80212 L 685.53475,744.20319 C 692.06605,746.68097 698.78064,746.2261 705.66844,743 L 703.52944,734.0695 L 704.59894,729.60425 L 709.11006,731.9115 C 708.30126,720.03409 713.4426,715.20573 722.45781,705.26875 z "
         style="fill:white;fill-opacity:1;fill-rule:evenodd;stroke:black;stroke-width:1px;stroke-linecap:butt;stroke-linejoin:miter;stroke-opacity:1" />
      <path
         sodipodi:nodetypes="ccc"
         id="path9041"
         d="M 647.53259,585.66595 C 647.86863,581.81771 647.23297,585.99535 645.04454,587.47265 C 647.16567,586.23745 646.81829,586.71107 647.53259,585.66595 z "
         style="fill:white;fill-opacity:1;fill-rule:evenodd;stroke:black;stroke-width:1px;stroke-linecap:butt;stroke-linejoin:miter;stroke-opacity:1" />
      <path
         sodipodi:nodetypes="cccccc"
         id="path10815"
         d="M 669.1875,587.96875 C 668.39652,590.15475 669.95588,591.15983 671.87734,591.62266 C 672.20954,589.54297 671.9797,590.23043 672.48516,588.93516 L 669.45313,588.08828 C 666.98725,588.78629 669.31396,588.02531 669.28125,588 L 669.1875,587.96875 z "
         style="fill:black;fill-opacity:1;fill-rule:nonzero;stroke:black;stroke-width:1;stroke-miterlimit:4;stroke-dasharray:none;stroke-opacity:1" />
      <path
         sodipodi:nodetypes="cccccc"
         id="path9928"
         d="M 665.18906,586.62188 L 669.28359,588 C 669.78332,589.2737 669.66822,590.72307 671.81094,591.52734 C 671.49899,590.55218 670.89527,589.47976 671.33828,588.75625 L 679,590 C 675.50942,593.78721 667.99568,598.70977 665.18906,586.62188 z "
         style="fill:white;fill-opacity:1;fill-rule:evenodd;stroke:black;stroke-width:1px;stroke-linecap:butt;stroke-linejoin:miter;stroke-opacity:1" />
    </g>
  </g>
  <g
     inkscape:groupmode="layer"
     id="layer3"
     inkscape:label="Reflet final"
     style="display:inline"
     sodipodi:insensitive="true">
    <path
       style="fill:url(#radialGradient3236);fill-opacity:1"
       d="M 1.5,1.5 L 1.5,460.3679 C 1.5,626.67854 135.81454,761.5 301.49993,761.5 C 467.1854,761.5 601.5,626.67854 601.5,460.3679 L 601.5,1.5 L 1.5,1.5 z "
       id="path2346" />
  </g>
  <g
     inkscape:groupmode="layer"
     id="layer4"
     inkscape:label="Contour final"
     style="display:inline"
     sodipodi:insensitive="true">
    <path
       style="fill:none;fill-opacity:1;stroke:#000000;stroke-width:3;stroke-miterlimit:4;stroke-dasharray:none;stroke-opacity:1"
       d="M 1.5,1.5 L 1.5,460.36794 C 1.5,626.67854 135.81454,761.5 301.49993,761.5 C 467.1854,761.5 601.5,626.67854 601.5,460.36794 L 601.5,1.5 L 1.5,1.5 z "
       id="path3239" />
  </g>
</svg>

<svg xmlns="http://www.w3.org/2000/svg" xmlns:xlink="http://www.w3.org/1999/xlink" height="763" width="603" version="1.0"><defs><radialGradient xlink:href="#a" id="b" gradientUnits="userSpaceOnUse" gradientTransform="matrix(1.21503 0 0 1.26667 -839.192 -490.49)" cx="858.042" cy="579.933" fx="858.042" fy="579.933" r="300"/><linearGradient id="a"><stop style="stop-color:#fff;stop-opacity:.3137255" offset="0"/><stop offset=".19" style="stop-color:#fff;stop-opacity:.25098041"/><stop style="stop-color:#6b6b6b;stop-opacity:.1254902" offset=".6"/><stop style="stop-color:#000;stop-opacity:.1254902" offset="1"/></linearGradient></defs><path d="M1.5 1.5v458.868c0 166.31 134.315 301.132 300 301.132s300-134.822 300-301.132V1.5H1.5z" style="fill:#e20909;fill-opacity:1"/><path d="M654.198 624.47s-7.263-3.654-12.326-7.406c-5.913-4.38-13.482-2.852-15 2.54-3.656 12.986-10.164 15.481-9.278 24.6l9.01-1.605-9.01 1.604.133 12.326c6.542-1.524 11.307-4.825 15-9.197l-6.123-4.733.134-3.128 3.797.534c-.354-5.581-.029-11.058 4.198-15.936 3.229 5.605 4.393 12.095 9.866 16.738L655 623l-.802 1.47zM718.396 669.604c16.974-25.028 36.337-9.186 33.537 5.035C749.088 689.087 734.99 698.327 745 708c-.879 1.398-2.346 1.617-3.93 1.604-5.717-9.13-2.49-18.705 1.626-28.748 3.493-8.522 6.739-21.775-12.696-17.856 19.483-3.874 15.809 9.257 12.696 17.856-4.043 10.094-7.339 19.522-1.627 28.748-1.266.533-2.386 1.36-4.331.535-4.465-5.203-2.868-11.458-2.14-17.54-.769 6.143-2.233 12.425 2.14 17.54-8.11.473-10.665-11.765-6.244-20.658 9.58-19.273 2.713-26.7-10.494-16.481l-1.604-3.396zM687.204 583.905c.43-1.394.603-2.15.323-3.905-5.41.22-7.412 2.71-10.77 5.527 4.75 1.908 6.42 1.193 10.447-1.622zM687.005 590.727c9.466 12.385 2.212 24.076-3.743 35.883l7.326-2.006 2.58-4.442-5.227-3.098 5.227 3.098c1.069-1.803 1.6-3.416 2.445-5.691l-6.201-1.337 6.201 1.337c.452-2.151 1.34-4.339 1.542-6.738l-6.14-1.337 6.14 1.337c.49-2.398.577-4.7.385-7.193l-6.39.321 6.39-.32c-.33-2.31-.793-4.528-1.872-6.338l-5.454 1.123 5.454-1.123c-1.404-2.714-3.522-4.477-5.668-6.203l-2.995 2.727z" style="fill:#fff;fill-opacity:1;fill-rule:evenodd;stroke:#000;stroke-width:1px;stroke-linecap:butt;stroke-linejoin:miter;stroke-opacity:1" transform="matrix(4.27435 0 0 4.27435 -2625.826 -2447.092)"/><path d="M735.749 613.936c2.21-3.53 5.12-9.867 2.513-16.872-.656 2.633-2.843 3.735-4.465 5.401L715 618l18.797-15.535c1.827-2.974 3.693-12.756.936-16.337-.428 2.772-2.406 3.994-3.797 5.803L700 623l30.936-31.07c1.17-6.244.565-11.159-2.54-14.197-10.037 19.264-27.202 27.415-38.396 47.139 16.296-2.18 31.222-6.278 45.749-10.936zM694.144 697.68c-4.504 3.565-4.659 5.94-5.08 10.186-7.624 4.184-18.747 3.224-20.936 15.401-1.697-1.205-3.836-2.19-4.197-4.064l-2.193 2.995-11.337-.401 11.337.4 2.326 9.6C657.71 734.96 650.285 733.835 645 733l5.401-11.203c1.734-9.77 14.657-9.366 26.604-19.733-13.637-10.415-7.635-20.316 3.209-28.53 13.2 1.792 13.54 12.494 13.93 24.145z" style="fill:#fff;fill-opacity:1;fill-rule:evenodd;stroke:#000;stroke-width:1px;stroke-linecap:butt;stroke-linejoin:miter;stroke-opacity:1" transform="matrix(4.27435 0 0 4.27435 -2625.826 -2447.092)"/><path d="M692.674 681.396c.959 9.227-13.172 7.962-8.434.456l-6.566-6.713c5.656-.54 10.671 1.485 15 6.257z" style="fill:#fff;fill-opacity:1;fill-rule:evenodd;stroke:#000;stroke-width:1px;stroke-linecap:butt;stroke-linejoin:miter;stroke-opacity:1" transform="matrix(4.27435 0 0 4.27435 -2625.826 -2447.092)"/><path d="M722.458 705.269c-19.544-13.318 14.974-33.872-16.127-42.692-5.66-1.606-11.928-3.752-20.112-10.9-3.551-.578-6.34-1.037-9.433-1.786 3.188.86 5.764 1.222 9.433 1.786 25.058-1.286 44.068 8.775 59.915-16.324l-7.605 2.246c-16.135 6.626-34.12 4.766-51.07 7.273 17.033-2.384 35.033-.578 51.07-7.273 7.155-4.807 13.03-11.143 13.32-18.322-2.042 1.46-4.084 2.311-6.127 3.135-19.169 10.492-39.018 10.767-58.53 16.123 19.46-5.393 39.449-5.586 58.53-16.123 3.288-4.936 7.065-9.609 5.882-16.952-22.697 23.626-69.98 20.068-76.604 32.54 6.655-12.398 53.799-8.992 76.604-32.54-21.109 10.925-44.343 14.623-67.139 19.813-15.936 3.01-15.403 9.387-15.267 15.802-.112-6.398-.59-12.876 15.267-15.802 3.51-10.448 13.345-18.919 3.396-34.947 2.726-1.873 4.591-4.606 5.535-8.262-3.706.468-7.49.156-10.856 4.01-6.592-.539-14.922-7.738-19.599-.935-8.596.442-23.003-13.769-24.331 5 4.853.157 10.106-.406 11.524 5.936l-10.401 1.658c1.817 2.8 3.31 5.92 8.315 2.994 4.827-2.821 9.016 2.174 14.728 2.273 1.403 2.192 2.028 4.578 7.518 5.749 4.363.51 8.277-1.124 9.706-5.749-1.38 4.626-5.277 6.221-9.706 5.749.462 13.6-19.004 5.551-20.428 21.925-9.309 3.814-5.64 11.09-4.866 17.593 2.56-2.966 5.09-2.902 7.594-3.796-2.532.944-5.063.899-7.594 3.796-4.121 4.496-8.766 12.092-12.941 14.145-6.907 3.611-7.19 10-2.059 15.588 9.26 13.351 3.288 15.905 8.53 19.599l6.604-8.262-6.605 8.262 10.803 9.332c2.064-5.368 4.093-10.752 2.326-17.862l-6.524.268-1.926-3.129 4.867-.935C642.752 680.75 628.87 671.096 645 668l11.337-2.273c4.084-1.367 5.35-4.878 5.134-9.465.221 4.605-1.086 8.063-5.134 9.465 9.322 11.908 16.56 4.024 34.198 14.01l.4-2.86-.4 2.86c-4.623 19.861 7.204 22.275 16.604 28.13-8.858 22.262-14.077 16.592-15.08 25.935l11.47.267-11.47-.267-6.524 10.401c6.531 2.478 13.246 2.023 20.133-1.203l-2.139-8.93 1.07-4.466 4.511 2.308c-.809-11.878 4.333-16.706 13.348-26.643z" style="fill:#fff;fill-opacity:1;fill-rule:evenodd;stroke:#000;stroke-width:1px;stroke-linecap:butt;stroke-linejoin:miter;stroke-opacity:1" transform="matrix(4.27435 0 0 4.27435 -2625.826 -2447.092)"/><path d="M647.533 585.666c.336-3.848-.3.33-2.488 1.807 2.12-1.236 1.773-.762 2.488-1.807z" style="fill:#fff;fill-opacity:1;fill-rule:evenodd;stroke:#000;stroke-width:1px;stroke-linecap:butt;stroke-linejoin:miter;stroke-opacity:1" transform="matrix(4.27435 0 0 4.27435 -2625.826 -2447.092)"/><path d="M669.188 587.969c-.791 2.186.768 3.19 2.69 3.654.332-2.08.102-1.393.607-2.688l-3.032-.847c-2.466.698-.139-.063-.172-.088l-.093-.031z" style="fill:#000;fill-opacity:1;fill-rule:nonzero;stroke:#000;stroke-width:1;stroke-miterlimit:4;stroke-dasharray:none;stroke-opacity:1" transform="matrix(4.27435 0 0 4.27435 -2625.826 -2447.092)"/><path d="m665.19 586.622 4.094 1.378c.5 1.274.384 2.723 2.527 3.527-.312-.975-.916-2.047-.473-2.77L679 590c-3.49 3.787-11.004 8.71-13.81-3.378z" style="fill:#fff;fill-opacity:1;fill-rule:evenodd;stroke:#000;stroke-width:1px;stroke-linecap:butt;stroke-linejoin:miter;stroke-opacity:1" transform="matrix(4.27435 0 0 4.27435 -2625.826 -2447.092)"/><g style="display:inline"><path style="fill:url(#b);fill-opacity:1" d="M1.5 1.5v458.868c0 166.31 134.315 301.132 300 301.132s300-134.821 300-301.132V1.5H1.5z"/></g><g style="display:inline"><path style="fill:none;fill-opacity:1;stroke:#000;stroke-width:3;stroke-miterlimit:4;stroke-dasharray:none;stroke-opacity:1" d="M1.5 1.5v458.868c0 166.31 134.315 301.132 300 301.132s300-134.821 300-301.132V1.5H1.5z"/></g></svg>
